!!!!SEGMENT: erk004.krn
!!!OTL@@DE: Aennchen von Tharau
!!!COM: Silcher, Friedrich
!!!ONB: Aus dem samländischen Dialekt in's Hochdeutsche übertragen von J.G.v. Herder (1778).
!!!CDT: 1825
!!!LYR: Dach, Simon
!!!LDT: 1638
!!!OMD: Moderato
!!!OCL: Erk, Ludwig
!!!GCO: Deutscher Liederschatz, Band 1
**kern	**kern	**dynam	**kern
*staff3	*staff2	*	*staff1
*Ipiano	*Ipiano	*	*Ivox
*>[A,A,B]	*>[A,A,B]	*>[A,A,B]	*>[A,A,B]
*>norep[A,B]	*>norep[A,B]	*>norep[A,B]	*>norep[A,B]
*>A	*>A	*>A	*>A
=1-	=1-	=1-	=1-
*clefF4	*clefG2	*	*clefG2
*k[]	*k[]	*	*k[]
*C:	*C:	*	*C:
*M3/4	*M3/4	*	*M3/4
*MM114	*MM114	*	*MM114
*^	*^	*	*
2G	2C	(4.g	2e	.	4.g
.	.	8a)	.	.	8a
4G	4C	4g	4e	.	4g
*v	*v	*	*	*	*
=2	=2	=2	=2	=2
2C 2G	(4g	2e	.	4g
.	4cc)	.	.	4cc
*	*v	*v	*	*
4C 4G	4e 4cc	.	4cc
=3	=3	=3	=3
2G 2B	4.f (4.dd	.	4.dd
.	8g 8ee	.	8ee
4G 4B	4f 4dd)	.	4dd
=4	=4	=4	=4
2C 2G 2c	2e 2cc	.	2cc
4r	4r	.	4r
=5	=5	=5	=5
4E 4G	4e 4b	.	4b
4D# 4A	4f# 4b	.	4b
4E 4G	4e 4b	.	4b
!!LO:LB:g=original
=6	=6	=6	=6
*	*^	*	*
2F#	(4.dd	2d 2a	.	4.dd
.	8cc	.	.	8cc
4G	4b)	4d 4g	.	4b
*	*v	*v	*	*
=7	=7	=7	=7
2D	4.c 4.f# (>4.a	.	4.a
.	8b/	.	8b
4D	4c 4f# 4a)	.	4a
=8	=8	=8	=8
2GG 2G	2B 2d 2g	.	2g
4r	4r	.	4r
=9:|!	=9:|!	=9:|!	=9:|!
*>B	*>B	*>B	*>B
4GG	4.B 4.d 4.g	.	4.g
4BB	.	.	.
.	8d 8g	.	8g
4D	4d 4f# 4a	.	4a
=10	=10	=10	=10
4G	4d 4g 4b	.	4b
4BB	4d 4g	.	4g
4D	4d 4f# 4a	.	4a
!!LO:LB:g=original
=11	=11	=11	=11
4G	4d 4g 4b	<	4b
4G	4d 4b	.	4b
4G 4c	4e 4cc	[	4cc
=12	=12	=12	=12
2.G 2.B	2.f 2.dd	.	2dd
.	.	.	4r
=13	=13	=13	=13
*^	*	*	*
2c	4c	4e 4cc	<	4cc
.	4B	4f 4dd	.	4dd
4c	4B	4g 4cc 4ee	[	4ee
=14	=14	=14	=14	=14
2c	4.A	4.f 4.cc 4.ff	.	4.ff
.	8G	8g 8ee	.	8ee
4c	4F	4a 4dd	.	4dd
*v	*v	*	*	*
=15	=15	=15	=15
2G	4e 4cc	.	4cc
.	4f 4dd	.	4dd
4GG 4G	4d 4b	.	4b
=16	=16	=16	=16
2C 2G	2e 2cc	.	2cc
4r	4r	.	4r
==	==	==	==
*-	*-	*-	*-
!!!system-decoration: s1{(s2,s3)}
!!!RDF**kern: > = above
!!!RDF**kern: < = below
!!!ENC: Craig Stuart Sapp
!!!END: 2004/05/17
!!!EED: Craig Stuart Sapp
!!!EEV: 2025/07/21
!!!EFL: 004/651
